src/symbolic/actions/object-group-symbolic.svg

<?xml version="1.0" encoding="UTF-8" standalone="no"?>
<svg
   xmlns:dc="http://purl.org/dc/elements/1.1/"
   xmlns:cc="http://creativecommons.org/ns#"
   xmlns:rdf="http://www.w3.org/1999/02/22-rdf-syntax-ns#"
   xmlns:svg="http://www.w3.org/2000/svg"
   xmlns="http://www.w3.org/2000/svg"
   id="svg7435"
   height="16"
   width="16"
   version="1.1">
  <defs
     id="defs7437" />
  <metadata
     id="metadata7440">
    <rdf:RDF>
      <cc:Work
         rdf:about="">
        <dc:format>image/svg+xml</dc:format>
        <dc:type
           rdf:resource="http://purl.org/dc/dcmitype/StillImage" />
        <dc:title></dc:title>
      </cc:Work>
    </rdf:RDF>
  </metadata>
  <rect
     y="1"
     x="3"
     height="1"
     width="10"
     id="rect1311"
     style="opacity:0.25;vector-effect:none;fill:#555761;fill-opacity:1;stroke:none;stroke-width:1;stroke-linecap:round;stroke-linejoin:round;stroke-miterlimit:4;stroke-dasharray:none;stroke-dashoffset:0;stroke-opacity:1;marker:none;paint-order:normal" />
  <rect
     y="14"
     x="3"
     height="1"
     width="10"
     id="rect1311-4"
     style="opacity:0.25;vector-effect:none;fill:#555761;fill-opacity:1;stroke:none;stroke-width:1;stroke-linecap:round;stroke-linejoin:round;stroke-miterlimit:4;stroke-dasharray:none;stroke-dashoffset:0;stroke-opacity:1;marker:none;paint-order:normal" />
  <rect
     transform="rotate(90)"
     y="-15"
     x="3"
     height="1"
     width="10"
     id="rect1311-8"
     style="opacity:0.25;vector-effect:none;fill:#555761;fill-opacity:1;stroke:none;stroke-width:1;stroke-linecap:round;stroke-linejoin:round;stroke-miterlimit:4;stroke-dasharray:none;stroke-dashoffset:0;stroke-opacity:1;marker:none;paint-order:normal" />
  <rect
     transform="rotate(90)"
     y="-2"
     x="3"
     height="1"
     width="10"
     id="rect1311-4-7"
     style="opacity:0.25;vector-effect:none;fill:#555761;fill-opacity:1;stroke:none;stroke-width:1;stroke-linecap:round;stroke-linejoin:round;stroke-miterlimit:4;stroke-dasharray:none;stroke-dashoffset:0;stroke-opacity:1;marker:none;paint-order:normal" />
  <path
     id="rect1352"
     d="M 0.5 0 C 0.223 0 0 0.223 0 0.5 L 0 2.5 C 0 2.777 0.223 3 0.5 3 L 2.5 3 C 2.777 3 3 2.777 3 2.5 L 3 0.5 C 3 0.223 2.777 0 2.5 0 L 0.5 0 z M 1.25 1 L 1.75 1 C 1.8885 1 2 1.1115 2 1.25 L 2 1.75 C 2 1.8885 1.8885 2 1.75 2 L 1.25 2 C 1.1115 2 1 1.8885 1 1.75 L 1 1.25 C 1 1.1115 1.1115 1 1.25 1 z "
     style="opacity:1;vector-effect:none;fill:#555761;fill-opacity:1;stroke:none;stroke-width:1;stroke-linecap:round;stroke-linejoin:round;stroke-miterlimit:4;stroke-dasharray:none;stroke-dashoffset:0;stroke-opacity:1;marker:none;paint-order:normal" />
  <path
     id="rect1352-7"
     d="M 13.5,0 C 13.223,0 13,0.223 13,0.5 v 2 C 13,2.777 13.223,3 13.5,3 h 2 C 15.777,3 16,2.777 16,2.5 v -2 C 16,0.223 15.777,0 15.5,0 Z m 0.75,1 h 0.5 C 14.8885,1 15,1.1115 15,1.25 v 0.5 C 15,1.8885 14.8885,2 14.75,2 h -0.5 C 14.1115,2 14,1.8885 14,1.75 V 1.25 C 14,1.1115 14.1115,1 14.25,1 Z"
     style="opacity:1;vector-effect:none;fill:#555761;fill-opacity:1;stroke:none;stroke-width:1;stroke-linecap:round;stroke-linejoin:round;stroke-miterlimit:4;stroke-dasharray:none;stroke-dashoffset:0;stroke-opacity:1;marker:none;paint-order:normal" />
  <path
     id="rect1352-2"
     d="M 0.5,13 C 0.223,13 0,13.223 0,13.5 v 2 C 0,15.777 0.223,16 0.5,16 h 2 C 2.777,16 3,15.777 3,15.5 v -2 C 3,13.223 2.777,13 2.5,13 Z m 0.75,1 h 0.5 C 1.8885,14 2,14.1115 2,14.25 v 0.5 C 2,14.8885 1.8885,15 1.75,15 H 1.25 C 1.1115,15 1,14.8885 1,14.75 v -0.5 C 1,14.1115 1.1115,14 1.25,14 Z"
     style="opacity:1;vector-effect:none;fill:#555761;fill-opacity:1;stroke:none;stroke-width:1;stroke-linecap:round;stroke-linejoin:round;stroke-miterlimit:4;stroke-dasharray:none;stroke-dashoffset:0;stroke-opacity:1;marker:none;paint-order:normal" />
  <path
     id="rect1352-7-7"
     d="M 13.5,13 C 13.223,13 13,13.223 13,13.5 v 2 c 0,0.277 0.223,0.5 0.5,0.5 h 2 c 0.277,0 0.5,-0.223 0.5,-0.5 v -2 C 16,13.223 15.777,13 15.5,13 Z m 0.75,1 h 0.5 c 0.1385,0 0.25,0.1115 0.25,0.25 v 0.5 C 15,14.8885 14.8885,15 14.75,15 h -0.5 C 14.1115,15 14,14.8885 14,14.75 v -0.5 C 14,14.1115 14.1115,14 14.25,14 Z"
     style="opacity:1;vector-effect:none;fill:#555761;fill-opacity:1;stroke:none;stroke-width:1;stroke-linecap:round;stroke-linejoin:round;stroke-miterlimit:4;stroke-dasharray:none;stroke-dashoffset:0;stroke-opacity:1;marker:none;paint-order:normal" />
  <path
     id="rect1403"
     d="M 10.117188 2.0019531 A 4 4.0000002 0 0 0 6 6 A 4 4.0000002 0 0 0 6.0136719 6.2871094 A 4 4.0000002 0 0 1 6 6 L 3.5 6 C 3.223 6 3 6.223 3 6.5 L 3 12.5 C 3 12.777 3.223 13 3.5 13 L 9.5 13 C 9.777 13 10 12.777 10 12.5 L 10 9.9960938 A 4 4.0000002 0 0 0 14 6 A 4 4.0000002 0 0 0 10.117188 2.0019531 z M 10.085938 3.0019531 A 3 2.9994524 0 0 1 13 6 A 3 2.9994524 0 0 1 7 6 A 3 2.9994524 0 0 1 10.085938 3.0019531 z M 6.0410156 6.5449219 A 4 4.0000002 0 0 0 6.0585938 6.6601562 A 4 4.0000002 0 0 1 6.0410156 6.5449219 z M 4.25 7 L 6.1308594 7 A 4 4.0000002 0 0 0 9 9.8691406 L 9 11.75 C 9 11.8885 8.8885 12 8.75 12 L 4.25 12 C 4.1115 12 4 11.8885 4 11.75 L 4 7.25 C 4 7.1115 4.1115 7 4.25 7 z "
     style="opacity:1;vector-effect:none;fill:#555761;fill-opacity:1;stroke:none;stroke-width:1;stroke-linecap:round;stroke-linejoin:round;stroke-miterlimit:4;stroke-dasharray:none;stroke-dashoffset:0;stroke-opacity:1;marker:none;paint-order:normal" />
  <path
     style="opacity:0.25;vector-effect:none;fill:#555761;fill-opacity:1;stroke:none;stroke-width:1;stroke-linecap:round;stroke-linejoin:round;stroke-miterlimit:4;stroke-dasharray:none;stroke-dashoffset:0;stroke-opacity:1;marker:none;font-variant-east_asian:normal;paint-order:normal"
     id="path8335-9-5-7-4"
     d="M 13,6 A 3,2.9994524 0 1 1 7.0000001,6 3,2.9994524 0 1 1 13,6 Z" />
</svg>

<svg xmlns="http://www.w3.org/2000/svg" height="16" width="16"><path style="marker:none" opacity=".25" fill="#555761" d="M3 1h10v1H3zM3 14h10v1H3zM15 3v10h-1V3zM2 3v10H1V3z"/><path d="M.5 0C.223 0 0 .223 0 .5v2c0 .277.223.5.5.5h2c.277 0 .5-.223.5-.5v-2c0-.277-.223-.5-.5-.5h-2zm.75 1h.5a.25.25 0 0 1 .25.25v.5a.25.25 0 0 1-.25.25h-.5A.25.25 0 0 1 1 1.75v-.5A.25.25 0 0 1 1.25 1zM13.5 0c-.277 0-.5.223-.5.5v2c0 .277.223.5.5.5h2c.277 0 .5-.223.5-.5v-2c0-.277-.223-.5-.5-.5zm.75 1h.5a.25.25 0 0 1 .25.25v.5a.25.25 0 0 1-.25.25h-.5a.25.25 0 0 1-.25-.25v-.5a.25.25 0 0 1 .25-.25zM.5 13c-.277 0-.5.223-.5.5v2c0 .277.223.5.5.5h2c.277 0 .5-.223.5-.5v-2c0-.277-.223-.5-.5-.5zm.75 1h.5a.25.25 0 0 1 .25.25v.5a.25.25 0 0 1-.25.25h-.5a.25.25 0 0 1-.25-.25v-.5a.25.25 0 0 1 .25-.25zM13.5 13c-.277 0-.5.223-.5.5v2c0 .277.223.5.5.5h2c.277 0 .5-.223.5-.5v-2c0-.277-.223-.5-.5-.5zm.75 1h.5a.25.25 0 0 1 .25.25v.5a.25.25 0 0 1-.25.25h-.5a.25.25 0 0 1-.25-.25v-.5a.25.25 0 0 1 .25-.25zM10.117 2.002A4 4 0 0 0 6 6a4 4 0 0 0 .014.287A4 4 0 0 1 6 6H3.5c-.277 0-.5.223-.5.5v6c0 .277.223.5.5.5h6c.277 0 .5-.223.5-.5V9.996A4 4 0 0 0 14 6a4 4 0 0 0-3.883-3.998zm-.031 1A3 3 0 0 1 13 6a3 3 0 0 1-6 0 3 3 0 0 1 3.086-2.998zM6.04 6.545a4 4 0 0 0 .018.115 4 4 0 0 1-.018-.115zM4.25 7h1.88A4 4 0 0 0 9 9.87v1.88a.25.25 0 0 1-.25.25h-4.5a.25.25 0 0 1-.25-.25v-4.5A.25.25 0 0 1 4.25 7z" style="marker:none" fill="#555761"/><path style="marker:none;font-variant-east_asian:normal" d="M13 6a3 3 0 1 1-6 0 3 3 0 1 1 6 0z" opacity=".25" fill="#555761"/></svg>
